X:1
T:sONATE k;v; 330 Andante
T:Sonate in C
T:KV 330
T:Sonata I
T:W.A. Mozart
T:2ter Teil: Andante
%%score { ( 1 3 5 ) | ( 2 4 ) }
L:1/8
Q:1/4=50
M:3/4
K:F
V:1 treble nm="Piano" snm="Pno."
V:3 treble 
V:5 treble 
V:2 bass 
V:4 bass 
V:1
"^Andante cantabile""_dolce" (.c.c.c) | c3/2({dc=Bc)}f/ !wedge!c(AcE) | (G2 F)!f!(F[EG][FA]) | %3
w: |||
 (B3/2c/4d/4)!p! !wedge!c(FEF) | ([FA]2 [EG])!f!(.G.G.G) |{G} (g3/2d/4=B/4) G(.G.G.G) | %6
w: |||
{G} g2- g3/4(a/8=b/8!p! c'/).b/ .a/.g/.f/.e/ | x2 x2 x e/d/ | c2 z :: c{d} c{_B}A | %10
w: ||||
 (G2 ^F)"_cresc."(FG)A | ((A2 B))!p!(E"_crescendo"=FG | ABc^c){e} d{=c}B | A2 G!f!(.c.c.c) | %14
w: ||||
!f! b3 agf | (f2 e)"^dolce"(._e.e.e) | T_e>f g(f/e/) (e/d/)(d/^c/) | (^c2 d)(f/=e/ g/f/e/d/) | %18
w: ||||
!p! (d2 c)"_cresc."(f/>c/) (a/>f/)(c/>A/) |!f! x3 (GAB) | c/!p!.d/.e/.f/ (F3 A/G/) | F2 z :: %22
w: ||||
[K:Ab]!pp! (.[CA].[CA].[CA]) | [CA]3 ([B,G][DB][G,=E]) | [A,F]3 (.[Ac].[Ac].[Ac]) | (c3 dcB) | %26
w: ||||
{c} (BA) z x3 | (e"_crescendo"d) z{c} d{c}d{c}d |!f! d3/2({edcd)}e/ f3!p! (e/d/) | %29
w: |||
 (c/e/d/B/) A3 c/B/ | A2 z :: (EAc) | (e3 d/c/) B!wedge!A | (c2 B)!f!(CFA) | %34
w: |||||
 (c3 B/A/) G!p!!wedge!F | ([FA]2 [=EG])"_crescendo" (cfa) | (gf) z (cfa) | %37
w: |||
 (gf) z (.[=Acef].[Acef].[Acef]) | x2 [F_A]2{A} (GF/G/) | F2 z :|!pp! (.[CA].[CA].[CA]) | %41
w: ||||
 [CA]3 ([B,G][DB][G,=E] | [A,F]3) (.[Ac].[Ac].[Ac]) | [Ac]3 ([GB][Bd][C=E]) | [CF]2 z || %45
w: ||||
[K:F] (.c.c.c) | c3/2{dc=Bc}f/ !wedge!c(AcE) | (G2 F)!f!(F[EG][FA]) | %48
w: dolce * *|||
 (B3/2c/4d/4)!p! !wedge!c(FEF) | ([FA]2 [EG])!f!(.G.G.G) |{G} (g3/2d/4=B/4) G(.G.G.G) | %51
w: |||
{G} g2- g3/4(a/8=b/8!p! c'/).b/ .a/.g/.f/.e/ | (^c/d/f/a/) (=c3 e/d/) | c2 z c{d} c{_B}A | %54
w: |||
 (G2 ^F)"_cresc."(FG)!wedge!A | (A2!p!"_crescendo" B)(E=FG | ABc^c){e} d{=c}B | (A2 G)!f!(.c.c.c) | %58
w: ||||
!f! b3 agf | (f2 e)"^dolce"(._e.e.e) | T_e>f g(f/e/) (e/d/)(d/^c/) | (^c2 d)(f/=e/ g/f/e/d/) | %62
w: ||||
!p! (d2 c)"_cresc."(f/>c/) (a/>f/)(c/>A/) |!f! (c>=B _B) (GAB) | c/!p!.d/.e/.f/ (F3 A/G/) | %65
w: |||
 F2 z!pp! (.[CA].[CA].[CA]) | [CA]3 ([A,F][GB][EG]) | [Ac]2 z (.[Af].[Af].[Af]) | %68
w: |||
 [FA]3 ([Ac][GB][B,G]) | [A,F]2 !fermata!z |] %70
w: ||
V:2
 z z2 |!p! [F,A,C]4 [C,G,B,]2 | (B,2 A,)(([A,,A,][G,,G,][F,,F,])) | %3
 ([D,D][B,,B,]) !wedge![A,,A,] z!p! D,2 | C,4 x2 | x6 | (.[D,F,=B,]2 [E,G,C]2) z2 | %7
 z!p! [A,D] ([CE]2 [DF]2) | E2 C, :: z z2 | _E3 (ED)[A,C] | (C2 B,)_DCC | %12
 [A,C] x (A,,2 B,,)!p!!wedge!G,, | C,4 z2 |!f! [C,,C,]>.[D,,D,] .[E,,E,].[F,,F,].[G,,G,].[A,,A,] | %15
 [B,,B,]4 z2 |!p! [A,CF]2 [A,CF]2 [A,_EF]2 | [B,DF]4 z2 | ([B,D]2 [A,C]2) z2 | %19
!f! [E,G,C]3 [B,,B,][A,,A,][G,,G,] | [F,,F,] z!p! (A,2 B,2) | A,2 F,, ::[K:Ab] z z2 | %23
!pp! F,,/F,/F,/F,/ F,/F,/F,/F,/ F,/F,/F,/F,/ | F,,/F,/F,/F,/ F,/F,/F,/F,/ F,/F,/F,/F,/ | %25
 =E,,/=E,/E,/E,/ E,/E,/E,/E,/ E,/E,/E,/E,/ | F,,/F,/F,/F,/ F,2 z2 | %27
 z [F,A,D][F,A,D][F,A,D][F,A,D][F,A,D] | [G,B,DE]4 z2 |!p! z B, (C2 D2) | C2 A,, :: z z2 | %32
 z (A,CE F,=D) | z2 z (B, A,2) | z!f! (D,-F,A,B,!p!=B,) | [C,C]3 z z"_crescendo" (A,, | %36
 B,,B,) (=B,C) z (C, | D,D E)!f! !wedge![C,C]!wedge![=A,,=A,]!wedge![F,,F,] | [B,,B,]2 [C,C]2 C,2 | %39
 F,2 F,, :| z z2 |!pp! F,,/F,/F,/F,/ F,/F,/F,/F,/ F,/F,/F,/F,/ | %42
 F,,/F,/F,/F,/ F,/F,/F,/F,/ F,/F,/F,/F,/ | F,,/F,/F,/F,/ F,/F,/F,/F,/ F,/F,/F,/F,/ | F,2 z || %45
[K:F] z z2 |!p! [F,A,C]4 [C,G,B,]2 | (B,2 A,)([A,,A,][G,,G,][F,,F,]) | %48
 ([D,D][B,,B,]) !wedge![A,,A,] z!p! D,2 | C,4 z2 | z4 z2 | (.[D,F,=B,]2 [E,G,C]2) z2 | %52
 z!p! [A,D] ([CE]2 [DF]2) | E2 C, z z2 | _E3 (ED)D | [G,D]3 (B,A,[G,B,]) | %56
 [A,C] x (A,,2 B,,)!p!!wedge!G,, | C,4 z2 |!f! .[C,,C,]>.[D,,D,] .[E,,E,].[F,,F,].[G,,G,].[A,,A,] | %59
 [B,,B,]4 z2 |!p! [A,CF]2 [A,CF]2 [A,_EF]2 | [B,DF]4 z2 | ([B,D]2 [A,C]2) z2 | %63
!f! [E,G,C]3 [B,,B,][A,,A,][G,,G,] | [F,,F,] z!p! (A,2 B,2) | A,2 F,, z z2 | %66
!pp! F,,/F,/F,/F,/ F,/F,/F,/F,/ F,/F,/F,/F,/ | F,,/F,/F,/F,/ D,,/D,/D,/D,/ =B,,,/=B,,/B,,/B,,/ | %68
 C,,/C,/C,/C,/ C,/C,/C,/C,/ C,/C,/C,/C,/ | F,,2 !fermata!z |] %70
V:3
 x3 | x6 | x3 C2 C | F3 z =B,2 | C4 [CE]2 | [=B,DF]4 [CE]2 | x6 | (^c/d/f/a/) =c3 =B | x3 :: x3 | %10
 x5 !wedge!^F | ^F2 G x2 E | F4- FG | ((F2 E)) x3 | c4- x A | [Gc]4 x2 | x6 | x6 | x6 | %19
 (c>=B _B) E/>C/F/>C/G/>C/ | A z C3 E | x3 ::[K:Ab] x3 | x6 | x6 | G6 | (GF) x (ABc) | x6 | x6 | %29
 x5 G | x3 :: x3 | x6 | x6 | x6 | x6 | x6 | x6 | ([df]/[Bd]/)([Bd]/[GB]/) x2 =E2 | x3 :| x3 | x6 | %42
 x6 | =E4- EB, | A,2 z ||[K:F] x3 | x6 | x3 C2 C | F3 z =B,2 | C4 [CE]2 | [=B,DF]4 [CE]2 | x6 | %52
 x5 =B | x6 | x5 ^F | (^F2 G) x2 E | F4- FG | (F2 E) x3 | c6- | [Gc]4 x2 | x6 | x6 | x6 | %63
 x3 E/>C/ F/>C/G/>C/ | A z C3 E | x6 | x6 | x6 | x6 | x3 |] %70
V:4
 x3 | x6 | D,3 x3 | x6 | x6 | x6 | x6 | x F, G,4 | C2 x :: x3 | C3 (CB,D) | [G,D]3 (B,A,[G,B,]) | %12
 (F,D,) x4 | x6 | x6 | x6 | x6 | x6 | F,4 x2 | x6 | x2 C,4 | F,2 x ::[K:Ab] x3 | x6 | x6 | x6 | %26
 x6 | x6 | x6 | A,D, E,4 | A,2 x :: x3 | x6 | z (E,G,=E,) F,2 | x D, D,4 | x6 | x6 | x6 | x6 | %39
 x3 :| x3 | x6 | x6 | x6 | x3 ||[K:F] x3 | x6 | D,3 x3 | x6 | x6 | x6 | x6 | x F, G,4 | C2 x4 | %54
 C3 (CB,[A,C]) | (C2 B,)(_DC)C | (F,D,) x4 | x6 | x6 | x6 | x6 | x6 | F,4 x2 | x6 | x2 C,4 | %65
 F,2 x4 | x6 | x6 | x6 | x3 |] %70
V:5
 x3 | x6 | x6 | x6 | x6 | x6 | x6 | x6 | x3 :: x3 | x6 | x6 | x6 | x6 | x6 | x6 | x6 | x6 | x6 | %19
 x6 | x6 | x3 ::[K:Ab] x3 | x6 | x6 | x6 | x6 | x6 | x6 | x6 | x3 :: x3 | x6 | x6 | x6 | x6 | x6 | %37
 x6 | x6 | x3 :| x3 | x6 | x6 | x6 | x3 ||[K:F] x3 | x6 | x6 | x6 | x6 | x6 | x6 | x6 | x6 | x6 | %55
 x6 | x6 | x6 | x5 A | x6 | x6 | x6 | x6 | x6 | x6 | x6 | x6 | x6 | x6 | x3 |] %70

